!!!!SEGMENT: Snf0116-Dum_steteritis.krn
!!!id: Snf0116
!!!AGN: Motet
!!!SCT: Edwards, Gasch, Tröster (2021)
!!!voices: 4
!!!COM: Ludwig Senfl
!!!OTL: Dum steteritis
**kern	**text	**kern	**text	**kern	**text	**kern	**text
*part4	*part4	*part3	*part3	*part2	*part2	*part1	*part1
*staff4	*staff4	*staff3	*staff3	*staff2	*staff2	*staff1	*staff1
*I"Bassus	*	*I"Tenor	*	*I"Altus	*	*I"Superius	*
*I'B	*	*I'T	*	*I'A	*	*I'S	*
*clefF4	*	*clefGv2	*	*clefGv2	*	*clefG2	*
*	*	*	*	*	*	*	*
*k[]	*	*k[]	*	*k[]	*	*k[]	*
*	*	*	*	*	*	*	*
*M2/1	*	*M2/1	*	*M2/1	*	*M2/1	*
*met(C|)	*	*met(C|)	*	*met(C|)	*	*met(C|)	*
!!section: Prima pars: Dum steteritis
!!!OMD: Prima pars: Dum steteritis
=1	=1	=1	=1	=1	=1	=1	=1
0r	.	0r	.	0r	.	0g	Dum
=2	=2	=2	=2	=2	=2	=2	=2
0r	.	0r	.	0c	Dum	1g	ste-
.	.	.	.	.	.	1g	-te-
=3	=3	=3	=3	=3	=3	=3	=3
0r	.	0r	.	1c	ste-	2a	-ri-
.	.	.	.	.	.	2.cc	.
.	.	.	.	1c	-te-	.	.
.	.	.	.	.	.	4b	.
.	.	.	.	.	.	[2a	.
=4	=4	=4	=4	=4	=4	=4	=4
0r	.	0r	.	2d	-ri-	4a]	.
.	.	.	.	.	.	4f	.
.	.	.	.	2.f	.	2.a	.
.	.	.	.	4e	.	4g	.
.	.	.	.	4d	.	[2g	.
.	.	.	.	4c	.	.	.
=5	=5	=5	=5	=5	=5	=5	=5
0r	.	1r	.	0d	-tis,	2g]	.
.	.	.	.	.	.	2f	.
.	.	[1G	Dum	.	.	2.g	.
.	.	.	.	.	.	4a	.
=6	=6	=6	=6	=6	=6	=6	=6
0r	.	1G]	.	2B	[dum	4b	.
.	.	.	.	.	.	4g	.
.	.	.	.	2c	.	1cc	.
.	.	1G	ste-	1d	ste-	.	.
.	.	.	.	.	.	2b	.
=7	=7	=7	=7	=7	=7	=7	=7
0C	Dum	1G	-te-	1c	-te-	0cc	-tis,
.	.	1A	.	2c	-ri-	.	.
.	.	.	.	[2c	-tis,]	.	.
=8	=8	=8	=8	=8	=8	=8	=8
1C	ste-	1A	-ri-	2c]	.	0r	.
.	.	.	.	4B	.	.	.
.	.	.	.	4A	.	.	.
1C	-te-	1c	.	1G	.	.	.
=9	=9	=9	=9	=9	=9	=9	=9
2D	-ri-	1A	-tis	2F	.	2r	.
1F	.	.	.	1A	.	2a	dum
.	.	1r	.	.	.	4g	.
.	.	.	.	.	.	4f	.
2E	.	.	.	2G	.	2e	.
=10	=10	=10	=10	=10	=10	=10	=10
2.D	.	0r	.	2F	.	2f	ste-
.	.	.	.	1c	ste-	2e	-te-
4C	.	.	.	.	.	.	.
1D	.	.	.	.	.	1d	.
.	.	.	.	2B	.	.	.
=11	=11	=11	=11	=11	=11	=11	=11
2C	.	0r	.	2c	-te-	2e	.
2E	.	.	.	2G	.	1g	.
1D	.	.	.	1A	-ri-	.	.
.	.	.	.	.	.	2f#i	-ri-
=12	=12	=12	=12	=12	=12	=12	=12
1GG	-tis	0r	.	1G	-tis	1g	-tis
1r	.	.	.	1d	an-	[1a	an-
=13	=13	=13	=13	=13	=13	=13	=13
0D	an-	0r	.	1d	-te	1a]	.
.	.	.	.	1f	re-	1a	-te
=14	=14	=14	=14	=14	=14	=14	=14
1AA	-te	0r	.	1e	.	1cc	re-
2BB	re-	.	.	1d	.	1b	.
2GG	.	.	.	.	.	.	.
=15	=15	=15	=15	=15	=15	=15	=15
1AA	-ges,	1A	an-	1c	.	1.a	.
1D	.	1A	-te	1d	-ges,	.	.
.	.	.	.	.	.	4g	.
.	.	.	.	.	.	4f	.
=16	=16	=16	=16	=16	=16	=16	=16
4C	re-	1c	re-	1G	.	1e	.
4D	.	.	.	.	.	.	.
4E	.	.	.	.	.	.	.
4F	.	.	.	.	.	.	.
2.G	.	1B	.	1d	re-	2d	.
.	.	.	.	.	.	[2g	.
4F	.	.	.	.	.	.	.
=17	=17	=17	=17	=17	=17	=17	=17
2D	.	1A	-ges	1d	-ges	2g]	.
2F	.	.	.	.	.	2f	.
1E	.	1G	.	1e	.	1g	-ges
=18	=18	=18	=18	=18	=18	=18	=18
1D	.	0r	.	1f	.	1a	et
1G	-ges	.	.	2e	.	1b	.
.	.	.	.	2d	.	.	.
=19	=19	=19	=19	=19	=19	=19	=19
2r	.	1A	et	1c	et	1cc	.
2A	et	.	.	.	.	.	.
1G	prae-	1B	.	2d	.	1b	.
.	.	.	.	2e	.	.	.
=20	=20	=20	=20	=20	=20	=20	=20
1F	-si-	1c	prae-	1f	prae-	1a	.
1G	-des,	2.B	-si-	2.d	-si-	2b	prae-
.	.	.	.	.	.	[2dd	-si-
.	.	4c	.	4e	.	.	.
=21	=21	=21	=21	=21	=21	=21	=21
2r	.	2d	.	2f	.	4dd]	.
.	.	.	.	.	.	4cc	.
2E	et	2e	.	2g	.	1b	.
1F	prae-	1c	.	1f	.	.	.
.	.	.	.	.	.	2a	.
=22	=22	=22	=22	=22	=22	=22	=22
1G	-si-	1B	-des,	0e	-des,	0b	-des,
1E	-des,	1r	.	.	.	.	.
=23	=23	=23	=23	=23	=23	=23	=23
1G	no-	1B	no-	0r	.	1r	.
1G	-li-	[1d	-li-	.	.	1b	no-
=24	=24	=24	=24	=24	=24	=24	=24
0D	-te	1d]	.	1d	no-	1dd	-li-
.	.	1d	-te	1f	-li-	1dd	-te
=25	=25	=25	=25	=25	=25	=25	=25
2.D	prae-	1d	prae-	2.f	-te	2.dd	prae-
4E	.	.	.	4g	.	4cc	.
2F	.	1d	-me-	2f	.	2a	.
2G	.	.	.	2d	.	2b	.
=26	=26	=26	=26	=26	=26	=26	=26
4C	-me-	1e	.	1c	.	1cc	-me-
4D	.	.	.	.	.	.	.
4E	.	.	.	.	.	.	.
4F	.	.	.	.	.	.	.
1G	.	1d	-di-	2r	.	1b	-di-
.	.	.	.	2g	prae-	.	.
=27	=27	=27	=27	=27	=27	=27	=27
1A	-di-	1c	-ta-	1e	.	2cc	.
.	.	.	.	.	.	1a	.
1E	.	1B	.	1e	-me-	.	.
.	.	.	.	.	.	2g#i	.
=28	=28	=28	=28	=28	=28	=28	=28
1F	-ta-	1A	.	1c	.	1a	-ta-
1D	.	1A	-ri	2.d	-di-	1f	.
.	.	.	.	4c	.	.	.
=29	=29	=29	=29	=29	=29	=29	=29
1E	-ri	1r	.	2B	.	0g	-ri
.	.	.	.	2G	.	.	.
1C	.	1c	qua-	1G	-ta-	.	.
=30	=30	=30	=30	=30	=30	=30	=30
1F	qua-	1c	-li-	0A	-ri	1r	.
1F	-li-	1c	-ter	.	.	1cc	qua-
=31	=31	=31	=31	=31	=31	=31	=31
0F	-ter	1r	.	1f	qua-	1cc	-li-
.	.	1c	aut	1f	-li-	1cc	-ter
=32	=32	=32	=32	=32	=32	=32	=32
2r	.	1c	quid	2.f	-ter	1a	aut
2F	aut	.	.	.	.	.	.
.	.	.	.	4e	.	.	.
2.G	quid	1B	.	1d	.	2b	quid
.	.	.	.	.	.	[2g	.
4F	.	.	.	.	.	.	.
=33	=33	=33	=33	=33	=33	=33	=33
2.D	re-	1A	re-	1d	aut	2g]	.
.	.	.	.	.	.	2f	re-
4F	.	.	.	.	.	.	.
1E	-spon-	1G	.	2B	quid	2g	-spon-
.	.	.	.	2c	.	2e	.
=34	=34	=34	=34	=34	=34	=34	=34
1D	.	1A	-spon-	1d	re-	1f	-de-
2C	-de-	1c	-de-	[1e	-spon-	2g	.
2AA	.	.	.	.	.	[2a	-a-
=35	=35	=35	=35	=35	=35	=35	=35
1E	-a-	1B	.	1e]	.	2a]	.
.	.	.	.	.	.	2g#i	.
[1AA	-tis;	1A	-a-	[1c	-de-	2a	-tis;
.	.	.	.	.	.	[2cc	da-
=36	=36	=36	=36	=36	=36	=36	=36
1AA]	.	1A	-tis;	1c]	.	2cc]	.
.	.	.	.	.	.	4b	-bi-
.	.	.	.	.	.	4a	.
2r	.	1c	da-	[1e	-a-	2g	-tur
2AA	da-	.	.	.	.	[2a	e-
=37	=37	=37	=37	=37	=37	=37	=37
1E	-bi-	1B	-bi-	1e]	.	2a]	.
.	.	.	.	.	.	2g	.
2F	-tur	1A	-tur	1c	-tis;	2a	.
4E	.	.	.	.	.	4g	.
4D	.	.	.	.	.	4f	.
=38	=38	=38	=38	=38	=38	=38	=38
2C	e-	1A	e-	2r	.	2e	-nim
2D	.	.	.	2d	da-	2f	vo-
2E	-nim	1G	-nim	2.B	-bi-	2g	.
4D	.	.	.	.	.	4f	.
4C	.	.	.	4c	.	4e	.
=39	=39	=39	=39	=39	=39	=39	=39
2F	.	1A	vo-	2A	-tur	2d	-bis
2D	.	.	.	2d	e-	2f	.
1E	vo-	1G	.	2B	.	2e	.
.	.	.	.	2c	-nim	[2g	in
=40	=40	=40	=40	=40	=40	=40	=40
1D	-bis	1A	-bis	1d	vo-	2g]	.
.	.	.	.	.	.	2f	.
1E	in	1G	in	1c	.	2.g	il-
.	.	.	.	.	.	4f	.
=41	=41	=41	=41	=41	=41	=41	=41
1D	il-	1A	il-	1d	-bis	2d	.
.	.	.	.	.	.	2f	.
2C	-la	1c	-la	2G	in	2e	-la
[2F	ho-	.	.	[2A	il-	[2a	.
=42	=42	=42	=42	=42	=42	=42	=42
4F]	.	1c	ho-	4A]	.	2a]	.
4G	.	.	.	4B	.	.	.
2A	.	.	.	2c	.	4g	.
.	.	.	.	.	.	4f	.
1G	-ra	1d	-ra	1B	-la	2.g	ho-
.	.	.	.	.	.	4a	.
=43	=43	=43	=43	=43	=43	=43	=43
1E	.	1e	.	1G	ho-	2.b	-ra
.	.	.	.	.	.	8aL	.
.	.	.	.	.	.	8bJ	.
1A	quid,	1c	quid	2A	-ra	2cc	.
.	.	.	.	2e	quid	[2a	quid
=44	=44	=44	=44	=44	=44	=44	=44
2D	.	1B	.	2f	.	4a]	.
.	.	.	.	.	.	4g	.
2E	.	.	.	1e	lo-	1g	lo-
2C	.	1A	lo-	.	.	.	.
2D	.	.	.	2d	.	2f#i	.
=45	=45	=45	=45	=45	=45	=45	=45
1E	.	1G	-qua-	2c	-qua-	1g	-qua-
.	.	.	.	2B	.	.	.
1AA	quid	[1A	-mi-	[1c	-mi-	[1e	.
=46	=46	=46	=46	=46	=46	=46	=46
1AA	lo-	1A]	.	1c]	.	1e]	.
1D	-qua-	[1Al	-ni.	[1d	.	[1f	-mi-
=47	=47	=47	=47	=47	=47	=47	=47
1D	-mi-	0A_	.	1d]	.	1f]	.
[1AAl	-ni.	.	.	[1cl	-ni.	[1el	-ni.
=48	=48	=48	=48	=48	=48	=48	=48
00AA]	.	00A]	.	00c]	.	00e]	.
==	==	==	==	==	==	==	==
*-	*-	*-	*-	*-	*-	*-	*-
!!!system-decoration: [*]
!!!RDF**kern: i = editorial accidental
!!!RDF**kern: l = terminal long
!!!PTL: <i> New Senfl Edition: Motets for Four Voices (A-I) </i>
!!!PPR: Hollitzer Verlag
!!!PC#: Denkmäler der Tonkunst in Österreich 163.1
!!!PDT: 2021
!!!PED: Scott Lee Edwards, Stefan Gasch, and Sonja Tröster
!!!YEC: Copyright 2021 Denkmäler der Tonkunst in Österreich
!!!YEM: CC-BY-NC 4.0 (https://creativecommons.org/licenses/by-nc/4.0/legalcode)
!!!EED: Benjamin Ory
!!!EEV: 2023/10/29
!!!verovio: header true
!!!header-left: @{PTL}\n@{PED}, eds.\n@{PC#} (@{PDT})&nbsp;\n
!!!header-right:
!!!header-center:
